X:388
T:Brigadier General Ronald Cheape of Tiroran 
C:Joe Buchanan's Scottish Tome - Page 343.0
I:343 0
C:P.M. John Ross
R:March
Z:Carl Allison
L:1/16
M:2/4
K:A
af | e>Ac>B A2A>e | c<Ac<e a2g>f | e>Ac>B A2A>c | B<Gd>c B2a>f |
e>Ac>B A2A>e | c<Ac<e a2e>d | c2A>c B<dG>B | A4 A<A :|
g2 | a2e>a c<Ae>d | c<Ae>c ae>c | aea c<Ae>c | B<Gd>c B2f>g |
a2e>a c<Ae>d | c<Ae>c a2e>d | cA>c B<dG>B | A4 A<A :|
ed | c>eA>c A2A>c | c<eA>c e>dc<A | c<eA>c A>cc<A | B<Gd>c B2e>d |
c>eA>c A2A>c | c<eA>c e>dc<A | cA>c B<dG>B | A4 A<A :|
g2 | a>ee>a c<ea>f | e>Ac<e a>ec<A | a>ee>a c<ea>c | B<Gd>c Bf>g |
a>ee>a c<ea>f | e>Ac<e a>ec<A | c2A>c B<cG>B | A4 A2A>g |
a>ee>a c<ea>f | e>Ac<e a>ec<A | a<ee>a cea>c | B<Gd>c B2c>d |
e>fd>e c<Ac<e | f<af>d e>Ac<d | c2A>c B<dG>B | A4 A<A |

